icon/cg/pentagon-bottom-right.svg

<svg viewBox="0 0 24 24" fill="none" xmlns="http://www.w3.org/2000/svg" height="1em" width="1em">
  <path fill-rule="evenodd" clip-rule="evenodd" d="M10.3301 8.23205L13.6603 4L18.6603 12.6603L15.3301 16.8923L10 17.6603L5 9L10.3301 8.23205ZM8.20908 10.5583L11.4072 10.0975L13.4052 7.5583L16.2512 12.4876L14.2531 15.0268L11.055 15.4876L8.20908 10.5583Z" fill="currentColor"/>
</svg>

<svg width="24" height="24" fill="none" xmlns="http://www.w3.org/2000/svg"><path fill-rule="evenodd" clip-rule="evenodd" d="M10.33 8.232 13.66 4l5 8.66-3.33 4.232-5.33.768L5 9l5.33-.768Zm-2.12 2.326 3.197-.46 1.998-2.54 2.846 4.93-1.998 2.539-3.198.46-2.846-4.929Z" fill="currentColor"/></svg>
